!!!!SEGMENT: pl-kk--kk-i-385--007_anonim--tractus.krn
!!!cenid: 17xx:1987
!!!COM: Anonim
!!!COM-rismid: pe30004985
!!!CDT:
!!!CNT:
!!!OTL: Tractus
!!!PDT:
!!!AGN: Sacred
!!!SMS-siglum: PL-Kk
!!!SMS-shelfmark: Kk.I.385
!!!SMS-shelfwork: 007 W
!!!SMS-variant:
!!!SMS-altvar:
!!!NIFC-rismid: 1001143569
!!!URL-scan: http://repozytorium.nifc.pl/skany/pl-kk-nut--i-385
!!!ONB-nifc: UWAGA: numeracja zgodna z numeracją utworów w źródle
**kern	**text	**kern	**text	**kern	**text
*part3	*part3	*part2	*part2	*part1	*part1
*staff3	*staff3	*staff2	*staff2	*staff1	*staff1
*I"Tenore.	*	*I"Alto.	*	*I"Soprano.	*
*I'T	*	*I'A	*	*I'S	*
*clefC4	*	*clefC3	*	*clefC1	*
*k[]	*	*k[]	*	*k[]	*
*M2/2	*	*M2/2	*	*M2/2	*
*met(c|)	*	*met(c|)	*	*met(c|)	*
=1	=1	=1	=1	=1	=1
!	!	!	!	!LO:TX:t=Tractus.	!
!LO:TX:t=Tractus	!	!LO:TX:t=Tractus.	!	!LO:TX:t=P:problem:brak Basso?	!
!LO:TX:t=P:problem:2\, 4\right:global	!	!LO:TX:t=P:problem:2\, 4\right:global	!	!LO:TX:a:t=10.	!
!LO:TX:a:t-in C.	!	!LO:TX:a:t-in C.	!	!LO:TX:t=P:problem:2\, 4\right:global	!
!LO:TX:rj:a:t= 7.mum in C.	!	!LO:TX:rj:a:t= 7.mum	!	!LO:TX:rj:a:t= 7.mum	!
2G/	Gau-	00r	.	00r	.
2G/	-de	.	.	.	.
=2	=2	=2	=2	=2	=2
4A\	gau-	.	.	.	.
4G\	.	.	.	.	.
4A\	.	.	.	.	.
4B\	.	.	.	.	.
=3	=3	=3	=3	=3	=3
4c\	.	.	.	.	.
4G/	.	.	.	.	.
*2\right	*	*	*	*	*
[2c\	.	.	.	.	.
=4	=4	=4	=4	=4	=4
2c\]	.	.	.	.	.
2B\	.	.	.	.	.
=5	=5	=5	=5	=5	=5
*	*	*2\right	*	*	*
2A\	-de	2c\	Gau-	00r	.
2A\	Ma-	2c\	-de	.	.
=6	=6	=6	=6	=6	=6
4B\	-ri-	4d\	gau-	.	.
4B\	-a	4c\	.	.	.
[2c\	vir-	4d\	.	.	.
.	.	4e\	.	.	.
=7	=7	=7	=7	=7	=7
2c\]	.	4f\	.	.	.
.	.	4c\	.	.	.
2B\	.	[2f\	.	.	.
!LO:LB:g=original	!	!	!	!	!
=8	=8	=8	=8	=8	=8
1c\	-go	2f\]	.	.	.
.	.	2e\	de	.	.
=9	=9	=9	=9	=9	=9
2r	.	1d\	gau-	0r	.
2d\	Ma-	.	.	.	.
=10	=10	=10	=10	=10	=10
2A\	-ri-	1c\	-de	.	.
2A\	-a	.	.	.	.
=11	=11	=11	=11	=11	=11
*	*	*	*	*2\right	*
2B\	vir-	1r	.	2g\	Gau-
2G/	-go	.	.	2g\	-de
=12	=12	=12	=12	=12	=12
2.c\	gau-	2r	.	4a\	gau-
.	.	.	.	4g\	.
.	.	2a\	Ma-	4a\	.
4d\	.	.	.	4b\	.
!	!	!LO:LB:g=original	!	!	!
=13	=13	=13	=13	=13	=13
4e\	.	2e\	-ri-	4cc\	.
4f\	.	.	.	4g\	.
2g\	.	2e\	-a	[2cc\	.
=14	=14	=14	=14	=14	=14
1d\	.	2d\	vir-	2cc\]	.
.	.	2g\	-go	2b\	de
=15	=15	=15	=15	=15	=15
1c\	-de	4e\	gau-	1a\	gau-
.	.	4f\	.	.	.
.	.	4e\	.	.	.
.	.	4d\	.	.	.
=16	=16	=16	=16	=16	=16
00r	.	4c\	.	2g\	-de
.	.	4d\	.	.	.
.	.	4e\	.	2g\	Ma-
.	.	4c\	.	.	.
=17	=17	=17	=17	=17	=17
.	.	4f\	.	2a\	-ri-
.	.	4c\	.	.	.
.	.	[2f\	.	2a\	-a
!	!	!	!	!LO:LB:g=original	!
=18	=18	=18	=18	=18	=18
.	.	2f\]	.	2b\	vir-
.	.	2e\	de	[2cc\	.
=19	=19	=19	=19	=19	=19
.	.	1d\	gau-	2cc\]	.
.	.	.	.	2b\	.
=20	=20	=20	=20	=20	=20
1G/	cun-	1e\	-de	1cc\	-go
=21	=21	=21	=21	=21	=21
!	!	!	!	!LO:TX:a:t=2	!
2E/	-ctas	1c\	cun-	0r	.
!LO:SIC:l:v:s=hae	!	!	!	!	!
2A\	he-	.	.	.	.
!LO:LB:g=original	!	!LO:LB:g=original	!	!	!
=22	=22	=22	=22	=22	=22
4A\	.	2A/	-ctas	.	.
4G\	-re-	.	.	.	.
!	!	!LO:SIC:l:v:s=hae	!	!	!
2F/	-ses	2d\	he-	.	.
=23	=23	=23	=23	=23	=23
!	!	!LO:N:xstem:cue	!	!	!
1B\	cun-	4d\	.	2r	.
.	.	4c\	-re-	.	.
.	.	2B/	-ses	[2g\	cun-
=24	=24	=24	=24	=24	=24
!LO:SIC:v:s=2A	!	!	!	!	!
2G/	-ctas	1e\	cun-	2g\]	.
!LO:SIC:l:v:s=hae	!	!	!	!	!
2c\	he-	.	.	2e/	-ctas
=25	=25	=25	=25	=25	=25
!LO:N:xstem:cue	!	!	!	!LO:SIC:l:v:s=hae	!
4c\	.	2c\	-ctas	2.a\	he-
4B\	-re-	.	.	.	.
!	!	!LO:SIC:l:v:s=hae	!	!	!
2A\	-ses	2f\	he-	.	.
.	.	.	.	4g\	-re-
=26	=26	=26	=26	=26	=26
!	!	!LO:N:xstem:cue	!	!	!
2d\	so-	4f\	.	2f/	-ses
.	.	4e\	-re-	.	.
4B\	-la	2d\	-ses	2b\	so-
4B\	in-	.	.	.	.
=27	=27	=27	=27	=27	=27
2e\	-te-	1g\	so-	2g\	-la
2e\	-re-	.	.	2cc\	in-
=28	=28	=28	=28	=28	=28
2d\	-mis-	2g\	-la	2b\	-te-
2c\	-ti	2e\	in-	2cc\	-re-
!	!	!	!	!LO:LB:g=original	!
=29	=29	=29	=29	=29	=29
2r	.	2g\	-te-	1dd\	-mi-
!LO:SIC:l:v:s=quae	!	!	!	!	!
2c\	que	2a\	-re-	.	.
=30	=30	=30	=30	=30	=30
2c\	Ga-	1g\	-mi-	1dd\	.
2B\	-bri-	.	.	.	.
!LO:LB:g=original	!	!	!	!	!
=31	=31	=31	=31	=31	=31
2c\	-e-	2g\	-sti	2cc\	-sti
!	!	!LO:SIC:l:v:s=quae	!	!	!
4B\	-lis	2g\	que	2r	.
4B\	ar-	.	.	.	.
!	!	!LO:LB:g=original	!	!	!
=32	=32	=32	=32	=32	=32
!LO:SIC:l:v:s=chan	!	!	!	!	!
2.A\	-han-	2g\	Ga-	1r	.
.	.	2f#X\	-bri-	.	.
4A\	-ge-	.	.	.	.
=33	=33	=33	=33	=33	=33
2G/	-li	2g\	-e-	2r	.
!	!	!	!	!LO:SIC:l:v:s=quae	!
2C/	ar-	4e\	-lis	2cc\	que
.	.	4e\	ar-	.	.
=34	=34	=34	=34	=34	=34
!LO:SIC:l:v:s=chan	!	!LO:SIC:l:v:s=chan	!	!	!
2F/	-han-	2.d\	-han-	2cc\	ga-
2G/	.	.	.	2b\	-bri-
.	.	4d\	-ge-	.	.
=35	=35	=35	=35	=35	=35
2A\	.	2c\	-li	2cc\	-e-
2B\	.	2r	.	4b\	-lis
.	.	.	.	4b\	ar-
=36	=36	=36	=36	=36	=36
!	!	!	!	!LO:SIC:l:v:s=chan	!
2c\	.	1r	.	2.a\	-han-
2A\	.	.	.	.	.
.	.	.	.	4g\	-ge-
=37	=37	=37	=37	=37	=37
2B\	.	2r	.	1g\	-li
[2c\	.	[2c\	dic-	.	.
=38	=38	=38	=38	=38	=38
2c\]	.	2c\]	.	1r	.
2B\	-ge-	2d\	-tis	.	.
=39	=39	=39	=39	=39	=39
1c\	-li	1e\	cre-	1g\	dic-
!LO:LB:g=original	!	!	!	!LO:LB:g=original	!
=40	=40	=40	=40	=40	=40
1r	.	2c\	.	1a\	-tis
.	.	[2f\	-di-	.	.
!	!	!LO:LB:g=original	!	!	!
=41	=41	=41	=41	=41	=41
2r	.	2f\]	-dis-	1b\	cre-
[>2G/	dic-	2g\	-ti	.	.
=42	=42	=42	=42	=42	=42
2G/]	.	2e\	cre-	1cc\	-di-
2A/	-tis	2a\	.	.	.
=43	=43	=43	=43	=43	=43
2B\	cre-	2g#X\	.	2b\	-di-
2c\	-di-	2a\	-di-	[2a\	.
=44	=44	=44	=44	=44	=44
1B\	-dis-	1e\	-dis-	2a\]	.
.	.	.	.	2g#X\	.
=45	=45	=45	=45	=45	=45
2A\	-ti	1e\	-ti	1a\	-sti
2E/	dum	.	.	.	.
=46	=46	=46	=46	=46	=46
!	!	!LO:TX:a:t=6	!	!	!
2A\	vir-	00r	.	00r	.
2B\	-go	.	.	.	.
=47	=47	=47	=47	=47	=47
1c\	De-	.	.	.	.
=48	=48	=48	=48	=48	=48
2A\	-um	.	.	.	.
2e\	et	.	.	.	.
=49	=49	=49	=49	=49	=49
2e\	ho-	.	.	.	.
[2d\	.	.	.	.	.
!LO:LB:g=original	!	!	!	!	!
=50	=50	=50	=50	=50	=50
2d\	.	0r	.	2r	.
2c\	.	.	.	2e/	dum
=51	=51	=51	=51	=51	=51
2B\	.	.	.	2a\	vir-
2B\	-mi-	.	.	2b\	-go
=52	=52	=52	=52	=52	=52
2A\	-nem	2r	.	1cc\	De-
2A\	et	2A/	dum	.	.
=53	=53	=53	=53	=53	=53
2G/	ho-	2d\	vir-	2b\	-um
2c\	.	2e\	-go	[2ee\	et
=54	=54	=54	=54	=54	=54
2A\	.	1f\	De-	2ee\]	.
2d\	.	.	.	2dd\	.
!	!	!	!	!LO:LB:g=original	!
=55	=55	=55	=55	=55	=55
4A\	.	2e\	-um	2dd\	.
4B\	.	.	.	.	.
4c\	.	[2a\	et	2cc\	.
4d\	.	.	.	.	.
!	!	!LO:LB:g=original	!	!	!
=56	=56	=56	=56	=56	=56
4e\	.	2a\]	ho-	2b\	ho-
4B\	.	.	.	.	.
[2e\	.	[2g\	.	2b\	-mi-
=57	=57	=57	=57	=57	=57
2e\]	.	2g\]	.	2a\	-nem
2d\	-mi-	[2f\	.	2a\	et
!LO:LB:g=original	!	!	!	!	!
=58	=58	=58	=58	=58	=58
2c\	-nem	2f\]	.	2g\	ho-
2g\	et	2e\	.	2cc\	.
=59	=59	=59	=59	=59	=59
2f\	ho-	2.d\	.	2a\	.
2d\	.	.	.	2b\	.
.	.	4d\	-mi-	.	.
=60	=60	=60	=60	=60	=60
2c\	.	2e\	-nem	2cc\	.
2B\	-nem	2g\	ge-	2dd\	-mi-
=61	=61	=61	=61	=61	=61
1A\	ge-	2g\	.	2ee\	-nem
.	.	[2f\	-nu-	[2dd\	ge-
=62	=62	=62	=62	=62	=62
2B\	.	2f\]	.	2dd\]	.
[2d\	-nu-	2e\	.	2dd\	-nu-
=63	=63	=63	=63	=63	=63
2d\]	-is-	1e\	-i-	1a\	-i-
2c#X\	.	.	.	.	.
=64	=64	=64	=64	=64	=64
!LO:SIC:l:v:s=ti	!	!	!	!	!
2d\	-sti	2f#X\	-sti	1a\	-sti
[2d\	et	[2f#\	et	.	.
!	!	!LO:LB:g=original	!	!LO:LB:g=original	!
=65	=65	=65	=65	=65	=65
2d\]	.	2f#X\]	.	2r	.
2d\	post	2f#\	post	[2dd\	et
=66	=66	=66	=66	=66	=66
2B\	par-	2g\	par-	2dd\]	.
2G/	-tum	2g\	-tum	2dd\	post
!LO:LB:g=original	!	!	!	!	!
=67	=67	=67	=67	=67	=67
2B\	vir-	1g\	vir-	2b\	par-
2c#X\	.	.	.	2g\	-tum
=68	=68	=68	=68	=68	=68
2d\	-go	2f#X\	-go	1dd\	vir-
[2B\	et	2r	.	.	.
=69	=69	=69	=69	=69	=69
2B\]	.	2r	.	2dd\	-go
2B\	post	[2g\	et	2dd\	post
=70	=70	=70	=70	=70	=70
2c\	par-	2g\]	.	1ee\	par-
2c\	-tum	2g\	post	.	.
=71	=71	=71	=71	=71	=71
1c\	Vir-	2e\	par-	1ee\	-tum
.	.	2c\	-tum	.	.
=72	=72	=72	=72	=72	=72
2B\	-go	1g\	vir-	1dd\	vir-
2B\	in-	.	.	.	.
=73	=73	=73	=73	=73	=73
2G/	-vi-	2g\	-go	1cc\	-go
2c\	-o-	2c\	post	.	.
!	!	!LO:LB:g=original	!	!	!
=74	=74	=74	=74	=74	=74
!	!	!	!	!LO:TX:a:t=2	!
2B\	-la-	2d\	par-	0r	.
2A\	.	2d\	-tum	.	.
=75	=75	=75	=75	=75	=75
4G/	.	1e\	vir-	.	.
4F/	.	.	.	.	.
4G/	.	.	.	.	.
4A/	.	.	.	.	.
!LO:LB:g=original	!	!	!	!	!
=76	=76	=76	=76	=76	=76
4B\	.	1e\	-go	2r	.
4A\	.	.	.	.	.
4B\	.	.	.	2dd\	in
4c\	.	.	.	.	.
=77	=77	=77	=77	=77	=77
2d\	.	2r	.	2b\	vi-
2c\	.	2c\	in-	2ee\	-o-
!	!	!	!	!LO:LB:g=original	!
=78	=78	=78	=78	=78	=78
2B\	-ta	2d\	-vi-	2dd\	-la-
2r	.	2e\	-o-	2cc\	-ta
=79	=79	=79	=79	=79	=79
2r	.	4d\	-la-	4b\	per-
.	.	4c\	.	4a\	.
2d\	in-	4B\	.	4b\	.
.	.	4A\	.	4g\	.
=80	=80	=80	=80	=80	=80
2B\	-vi-	2G/	.	2dd\	.
2e\	-o-	2g\	.	2cc\	.
=81	=81	=81	=81	=81	=81
!	!	!LO:N:xstem:cue	!	!	!
2d\	-la-	4g\	.	2b\	.
.	.	4f\	.	.	.
2c\	.	2e\	-ta	2cc\	-man-
=82	=82	=82	=82	=82	=82
4B\	.	2d\	per-	1dd\	-si-
4A\	.	.	.	.	.
4B\	.	2g\	-man-	.	.
4G/	.	.	.	.	.
!	!	!LO:LB:g=original	!	!	!
=83	=83	=83	=83	=83	=83
2c\	.	2e\	-si-	1cc\	-sti
2c\	-ta	2a\	-sti	.	.
!LO:LB:g=original	!	!	!	!	!
=84	=84	=84	=84	=84	=84
1c\	per-	2g\	in-	1r	.
.	.	2f\	.	.	.
=85	=85	=85	=85	=85	=85
1c\	.	4e\	-vi-	2r	.
.	.	4d\	.	.	.
.	.	4e\	.	2g\	in-
.	.	4c\	-o-	.	.
=86	=86	=86	=86	=86	=86
1c\	-man-	2g\	-la-	2e/	-vi-
.	.	2f\	-ta	2a\	-o-
=87	=87	=87	=87	=87	=87
1c\	.	2e\	per-	2g\	-la-
.	.	2a\	-man-	2f/	-ta
!	!	!	!	!LO:LB:g=original	!
=88	=88	=88	=88	=88	=88
1c\	.	2.g\	-si-	2e/	per-
.	.	.	.	2c/	-man-
.	.	4f\	-sti	.	.
=89	=89	=89	=89	=89	=89
1c\	-si-	2e\	per-	4g\	-si-
.	.	.	.	4g\	-sti
.	.	2g\	-man-	[2cc\	per-
=90	=90	=90	=90	=90	=90
1F/	-sti	1f\	-si-	2cc\]	-man-
.	.	.	.	2b\	-si-
=91	=91	=91	=91	=91	=91
2r	.	1e\	-sti	1cc\	-sti
[>2G/	De-	.	.	.	.
!	!	!LO:LB:g=original	!	!	!
=92	=92	=92	=92	=92	=92
!	!	!LO:TX:a:t=2	!	!	!
2G\]	.	0r	.	00r	.
2B\	-i	.	.	.	.
=93	=93	=93	=93	=93	=93
2c\	ge-	.	.	.	.
2A\	-ni-	.	.	.	.
=94	=94	=94	=94	=94	=94
2G/	-trix	2r	.	.	.
[2A\	in-	[2c\	De-	.	.
=95	=95	=95	=95	=95	=95
2A\]	.	2c\]	.	.	.
2c\	-ter-	2e\	-i	.	.
!LO:LB:g=original	!	!	!	!	!
=96	=96	=96	=96	=96	=96
1d\	-ce-	2f\	ge-	1r	.
.	.	2d\	-ni-	.	.
=97	=97	=97	=97	=97	=97
2A\	-de	2c\	-trix	2r	.
[2c\	pro	[2g\	in-	[2g\	De-
=98	=98	=98	=98	=98	=98
2c\]	.	2g\]	.	2g\]	.
2B\	.	2a\	-ter-	2b\	-i
=99	=99	=99	=99	=99	=99
4A\	no-	1a\	-ce-	2cc\	ge-
4B\	.	.	.	.	.
4c\	.	.	.	2a\	-ni-
4d\	.	.	.	.	.
=100	=100	=100	=100	=100	=100
2e\	.	1e\	-de	2g\	-trix
2c\	.	.	.	[2cc\	in-
=101	=101	=101	=101	=101	=101
1d\	.	2r	.	2cc\]	.
.	.	2f\	in	2b\	-ter-
!	!	!	!	!LO:LB:g=original	!
=102	=102	=102	=102	=102	=102
2G/	-bis	2e\	ter-	1cc\	-ce-
2r	.	2f\	-ce-	.	.
!	!	!LO:LB:g=original	!	!	!
=103	=103	=103	=103	=103	=103
1r	.	2c\	-de	1cc\	-de
.	.	2f\	pro	.	.
=104	=104	=104	=104	=104	=104
2r	.	4e\	no-	2r	.
.	.	4d\	.	.	.
2c\	in-	4e\	.	2ee\	in
.	.	4f\	.	.	.
=105	=105	=105	=105	=105	=105
2B\	-ter-	2g\	-bis	2dd\	ter-
2c\	-ce-	2g\	in-	2ee\	-ce-
!LO:LB:g=original	!	!	!	!	!
=106	=106	=106	=106	=106	=106
2G/	-de	2g\	-ter-	2b\	-de
[2c\	pro	2g\	-ce-	2cc\	in-
=107	=107	=107	=107	=107	=107
2c\]	.	2e\	-de	2g\	-ter-
2A\	.	4c\	.	2cc\	-ce-
.	.	4c\	pro	.	.
=108	=108	=108	=108	=108	=108
2B\	no-	2g\	no-	2b\	-de
[2c\	.	2e\	.	2ee\	pro
=109	=109	=109	=109	=109	=109
2c\]	.	1g\	-bis	1dd\	no-
2B\	.	.	.	.	.
=110	=110	=110	=110	=110	=110
1c\	.	2e\	pro	2cc\	-bis
.	.	[2f\	.	[2a\	pro
!	!	!LO:LB:g=original	!	!	!
=111	=111	=111	=111	=111	=111
1c\	.	2f\	.	2a\]	.
.	.	2c\	.	2g\	.
!	!	!	!	!LO:LB:g=original	!
=112	=112	=112	=112	=112	=112
1c\	.	1f\	no-	1a\	no-
=113	=113	=113	=113	=113	=113
0c\;	-bis.	0e\;	-bis.	0g\	-bis.
==	==	==	==	==	==
*-	*-	*-	*-	*-	*-
!!!system-decoration: [(s1,s2,s3)]
!!!RDF**kern: > = above
!!!RDF**kern: < = below
!!!EED: Leszek Kubiak
!!!EST: 2021-02-15
!!!ENC:Kamil Watkowski
!!!END:2021-02-09
